;FLAVOR:RepRap
;TIME:5127
;Filament used: 3.34694m
;Layer height: 0.15
;Generated with Cura_SteamEngine 0.0.0-master
M190 S60
M104 S190
M109 S190
G21 ;metric values
 G90 ;absolute positioning
 M82 ;set extruder to absolute mode
 M107 ;start with the fan off
 G28 X0 Y0 ;move X/Y to min endstops
 G28 Z0 ;move Z to min endstops
 G1 Z15.0 F{travel_speed} ;move the platform down 15mm
 G92 E0 ;zero the extruded length
 G1 F200 E6 ;extrude 6 mm of feed stock
 G92 E0 ;zero the extruded length again
 G1 F{travel_speed} 
 ;Put printing message on LCD screen
 M117 Printing...
;LAYER_COUNT:111
;LAYER:0
M107
G0 F4500 X47.005 Y81.937 Z0.149
;TYPE:SKIRT
G1 F1200 X47.723 Y81.607 E0.01971
G1 X48.47 Y81.352 E0.0394
G1 X49.239 Y81.173 E0.0591
G1 X50.023 Y81.073 E0.07881
G1 X50.618 Y81.05 E0.09367
G1 X56.899 Y81.05 E0.25035
G1 X57.688 Y81.09 E0.27005
G1 X58.468 Y81.209 E0.28974
G1 X59.233 Y81.407 E0.30945
G1 X59.973 Y81.681 E0.32913
G1 X60.682 Y82.029 E0.34883
G1 X61.353 Y82.447 E0.36855
G1 X61.977 Y82.93 E0.38824
G1 X62.347 Y83.273 E0.40082
G1 X62.864 Y82.805 E0.41822
G1 X63.5 Y82.338 E0.4379
G1 X64.18 Y81.937 E0.45759
G1 X64.898 Y81.607 E0.47731
G1 X65.645 Y81.352 E0.497
G1 X66.414 Y81.173 E0.51669
G1 X67.198 Y81.073 E0.53641
G1 X67.793 Y81.05 E0.55126
G1 X149.384 Y81.05 E2.58656
G1 X150.173 Y81.09 E2.60626
G1 X150.953 Y81.209 E2.62594
G1 X151.718 Y81.407 E2.64566
G1 X152.458 Y81.681 E2.66534
G1 X153.167 Y82.029 E2.68504
G1 X153.838 Y82.447 E2.70476
G1 X154.462 Y82.93 E2.72445
G1 X154.899 Y83.335 E2.73931
G1 X155.016 Y83.452 E2.74344
G1 X155.546 Y84.038 E2.76315
G1 X156.013 Y84.674 E2.78283
G1 X156.414 Y85.354 E2.80252
G1 X156.744 Y86.072 E2.82223
G1 X156.999 Y86.819 E2.84192
G1 X157.178 Y87.588 E2.86162
G1 X157.278 Y88.372 E2.88133
G1 X157.301 Y88.967 E2.89619
G1 X157.301 Y98.476 E3.13339
G1 X157.274 Y99.001 E3.1465
G1 X157.278 Y99.03 E3.14723
G1 X157.301 Y99.625 E3.16209
G1 X157.301 Y102.225 E3.22694
G1 X157.276 Y102.715 E3.23918
G1 X157.278 Y102.729 E3.23954
G1 X157.301 Y103.326 E3.25444
G1 X157.299 Y109.835 E3.41681
G1 X157.259 Y110.624 E3.43651
G1 X157.139 Y111.405 E3.45623
G1 X156.941 Y112.169 E3.47591
G1 X156.667 Y112.91 E3.49562
G1 X156.319 Y113.619 E3.51532
G1 X155.901 Y114.289 E3.53502
G1 X155.418 Y114.913 E3.55471
G1 X155.014 Y115.348 E3.56951
G1 X154.897 Y115.465 E3.57364
G1 X154.311 Y115.995 E3.59335
G1 X153.675 Y116.462 E3.61303
G1 X152.995 Y116.863 E3.63273
G1 X152.277 Y117.193 E3.65244
G1 X151.53 Y117.448 E3.67213
G1 X150.761 Y117.627 E3.69182
G1 X149.977 Y117.727 E3.71154
G1 X149.382 Y117.75 E3.72639
G1 X143.999 Y117.75 E3.86067
G1 X143.468 Y118.063 E3.87605
G1 X142.75 Y118.393 E3.89576
G1 X142.003 Y118.648 E3.91545
G1 X141.234 Y118.827 E3.93515
G1 X140.45 Y118.927 E3.95486
G1 X139.855 Y118.95 E3.96971
G1 X62.254 Y118.95 E5.90548
G1 X61.465 Y118.91 E5.92519
G1 X60.685 Y118.791 E5.94487
G1 X59.92 Y118.593 E5.96458
G1 X59.18 Y118.319 E5.98426
G1 X58.471 Y117.971 E6.00397
G1 X58.116 Y117.75 E6.0144
G1 X50.616 Y117.75 E6.20149
G1 X49.827 Y117.71 E6.22119
G1 X49.047 Y117.591 E6.24087
G1 X48.282 Y117.393 E6.26059
G1 X47.542 Y117.119 E6.28027
G1 X46.833 Y116.771 E6.29997
G1 X46.162 Y116.353 E6.31969
G1 X45.538 Y115.87 E6.33938
G1 X45.101 Y115.465 E6.35424
G1 X44.984 Y115.348 E6.35837
G1 X44.454 Y114.762 E6.37808
G1 X43.987 Y114.126 E6.39776
G1 X43.586 Y113.446 E6.41745
G1 X43.256 Y112.728 E6.43716
G1 X43.001 Y111.981 E6.45685
G1 X42.822 Y111.212 E6.47655
G1 X42.722 Y110.428 E6.49626
G1 X42.699 Y109.831 E6.51117
G1 X42.701 Y103.318 E6.67363
G1 X42.726 Y102.833 E6.68575
G1 X42.724 Y102.82 E6.68608
G1 X42.701 Y102.225 E6.70093
G1 X42.701 Y99.625 E6.76579
G1 X42.728 Y99.1 E6.7789
G1 X42.724 Y99.071 E6.77963
G1 X42.701 Y98.476 E6.79448
G1 X42.701 Y88.967 E7.03169
G1 X42.741 Y88.178 E7.05139
G1 X42.86 Y87.398 E7.07108
G1 X43.058 Y86.633 E7.09079
G1 X43.332 Y85.893 E7.11047
G1 X43.68 Y85.184 E7.13017
G1 X44.098 Y84.513 E7.1499
G1 X44.581 Y83.889 E7.16958
G1 X44.986 Y83.452 E7.18444
G1 X45.103 Y83.335 E7.18857
G1 X45.689 Y82.805 E7.20828
G1 X46.325 Y82.338 E7.22796
G1 X47.005 Y81.937 E7.24765
G0 F4500 X47.244 Y82.264
G1 F1200 X47.946 Y81.949 E7.26685
G1 X48.677 Y81.709 E7.28604
G1 X49.428 Y81.546 E7.30521
G1 X50.193 Y81.462 E7.32441
G1 X50.618 Y81.45 E7.33501
G1 X56.899 Y81.45 E7.49169
G1 X57.667 Y81.49 E7.51088
G1 X58.427 Y81.609 E7.53007
G1 X59.17 Y81.807 E7.54925
G1 X59.889 Y82.081 E7.56844
G1 X60.575 Y82.428 E7.58762
G1 X61.222 Y82.844 E7.60681
G1 X61.822 Y83.325 E7.62599
G1 X62.132 Y83.617 E7.63661
G1 X62.249 Y83.734 E7.64074
G1 X62.344 Y83.839 E7.64427
G1 X62.443 Y83.734 E7.64787
G1 X62.56 Y83.617 E7.652
G1 X63.132 Y83.103 E7.67118
G1 X63.754 Y82.65 E7.69038
G1 X64.419 Y82.264 E7.70956
G1 X65.121 Y81.949 E7.72875
G1 X65.852 Y81.709 E7.74794
G1 X66.603 Y81.546 E7.76711
G1 X67.368 Y81.462 E7.78631
G1 X67.793 Y81.45 E7.79692
G1 X149.384 Y81.45 E9.83221
G1 X150.152 Y81.49 E9.8514
G1 X150.912 Y81.609 E9.87059
G1 X151.655 Y81.807 E9.88977
G1 X152.374 Y82.081 E9.90896
G1 X153.06 Y82.428 E9.92814
G1 X153.707 Y82.844 E9.94733
G1 X154.307 Y83.325 E9.96651
G1 X154.617 Y83.617 E9.97713
G1 X154.734 Y83.734 E9.98126
G1 X155.248 Y84.306 E10.00044
G1 X155.701 Y84.928 E10.01964
G1 X156.087 Y85.593 E10.03882
G1 X156.402 Y86.295 E10.05801
G1 X156.642 Y87.026 E10.0772
G1 X156.805 Y87.777 E10.09637
G1 X156.889 Y88.542 E10.11557
G1 X156.901 Y88.967 E10.12618
G1 X156.901 Y98.476 E10.36338
G1 X156.872 Y99.041 E10.37749
G1 X156.889 Y99.2 E10.38148
G1 X156.901 Y99.625 E10.39209
G1 X156.901 Y102.225 E10.45694
G1 X156.873 Y102.756 E10.47021
G1 X156.889 Y102.899 E10.4738
G1 X156.901 Y103.326 E10.48445
G1 X156.899 Y109.835 E10.64682
G1 X156.859 Y110.603 E10.66601
G1 X156.739 Y111.363 E10.6852
G1 X156.541 Y112.106 E10.70438
G1 X156.267 Y112.825 E10.72357
G1 X155.92 Y113.511 E10.74275
G1 X155.503 Y114.158 E10.76195
G1 X155.022 Y114.758 E10.78113
G1 X154.732 Y115.066 E10.79169
G1 X154.615 Y115.183 E10.79582
G1 X154.043 Y115.697 E10.815
G1 X153.421 Y116.15 E10.83419
G1 X152.756 Y116.536 E10.85337
G1 X152.054 Y116.851 E10.87257
G1 X151.323 Y117.091 E10.89176
G1 X150.572 Y117.254 E10.91093
G1 X149.807 Y117.338 E10.93013
G1 X149.382 Y117.35 E10.94073
G1 X143.894 Y117.35 E11.07763
G1 X143.229 Y117.736 E11.09681
G1 X142.527 Y118.051 E11.11601
G1 X141.796 Y118.291 E11.1352
G1 X141.045 Y118.454 E11.15437
G1 X140.28 Y118.538 E11.17357
G1 X139.855 Y118.55 E11.18417
G1 X62.254 Y118.55 E13.11994
G1 X61.486 Y118.51 E13.13912
G1 X60.726 Y118.391 E13.15831
G1 X59.983 Y118.193 E13.17749
G1 X59.264 Y117.919 E13.19668
G1 X58.578 Y117.572 E13.21586
G1 X58.233 Y117.35 E13.2261
G1 X50.616 Y117.35 E13.4161
G1 X49.848 Y117.31 E13.43529
G1 X49.088 Y117.191 E13.45448
G1 X48.345 Y116.993 E13.47366
G1 X47.626 Y116.719 E13.49285
G1 X46.94 Y116.372 E13.51203
G1 X46.293 Y115.956 E13.53121
G1 X45.693 Y115.475 E13.5504
G1 X45.383 Y115.183 E13.56102
G1 X45.266 Y115.066 E13.56515
G1 X44.752 Y114.494 E13.58433
G1 X44.299 Y113.872 E13.60353
G1 X43.913 Y113.207 E13.62271
G1 X43.598 Y112.505 E13.6419
G1 X43.358 Y111.774 E13.66109
G1 X43.195 Y111.023 E13.68026
G1 X43.111 Y110.258 E13.69946
G1 X43.099 Y109.831 E13.71012
G1 X43.101 Y103.318 E13.87258
G1 X43.128 Y102.791 E13.88575
G1 X43.113 Y102.65 E13.88928
G1 X43.101 Y102.225 E13.89989
G1 X43.101 Y99.625 E13.96475
G1 X43.13 Y99.06 E13.97886
G1 X43.113 Y98.901 E13.98285
G1 X43.101 Y98.476 E13.99345
G1 X43.101 Y88.967 E14.23066
G1 X43.141 Y88.199 E14.24984
G1 X43.26 Y87.439 E14.26903
G1 X43.458 Y86.696 E14.28821
G1 X43.732 Y85.977 E14.30741
G1 X44.079 Y85.291 E14.32658
G1 X44.495 Y84.644 E14.34577
G1 X44.976 Y84.044 E14.36495
G1 X45.268 Y83.734 E14.37558
G1 X45.385 Y83.617 E14.3797
G1 X45.957 Y83.103 E14.39889
G1 X46.579 Y82.65 E14.41808
G1 X47.244 Y82.264 E14.43726
G0 F4500 X47.481 Y82.592
G1 F1200 X48.167 Y82.293 E14.45593
G1 X48.881 Y82.069 E14.4746
G1 X49.614 Y81.922 E14.49324
G1 X50.618 Y81.85 E14.51835
G1 X56.899 Y81.85 E14.67503
G1 X57.646 Y81.89 E14.69369
G1 X58.384 Y82.009 E14.71234
G1 X59.106 Y82.207 E14.73102
G1 X59.802 Y82.48 E14.74967
G1 X60.465 Y82.827 E14.76833
G1 X61.088 Y83.242 E14.78701
G1 X61.849 Y83.9 E14.8121
G1 X61.966 Y84.017 E14.81623
G1 X62.353 Y84.448 E14.83068
G1 X62.726 Y84.017 E14.8449
G1 X62.843 Y83.9 E14.84903
G1 X63.4 Y83.4 E14.8677
G1 X64.006 Y82.963 E14.88633
G1 X64.656 Y82.592 E14.905
G1 X65.342 Y82.293 E14.92367
G1 X66.056 Y82.069 E14.94234
G1 X66.789 Y81.922 E14.96099
G1 X67.793 Y81.85 E14.9861
G1 X149.384 Y81.85 E17.02139
G1 X150.131 Y81.89 E17.04005
G1 X150.869 Y82.009 E17.0587
G1 X151.591 Y82.207 E17.07737
G1 X152.287 Y82.48 E17.09602
G1 X152.95 Y82.827 E17.11469
G1 X153.573 Y83.242 E17.13336
G1 X154.334 Y83.9 E17.15846
G1 X154.451 Y84.017 E17.16259
G1 X154.951 Y84.574 E17.18126
G1 X155.388 Y85.18 E17.1999
G1 X155.759 Y85.83 E17.21856
G1 X156.058 Y86.516 E17.23723
G1 X156.282 Y87.23 E17.2559
G1 X156.429 Y87.963 E17.27455
G1 X156.501 Y88.967 E17.29966
G1 X156.501 Y98.476 E17.53686
G1 X156.466 Y99.134 E17.5533
G1 X156.501 Y99.625 E17.56558
G1 X156.501 Y102.225 E17.63043
G1 X156.467 Y102.855 E17.64617
G1 X156.501 Y103.326 E17.65795
G1 X156.499 Y109.835 E17.82032
G1 X156.459 Y110.582 E17.83898
G1 X156.339 Y111.321 E17.85766
G1 X156.141 Y112.042 E17.87631
G1 X155.868 Y112.738 E17.89496
G1 X155.521 Y113.401 E17.91362
G1 X155.106 Y114.024 E17.9323
G1 X154.449 Y114.783 E17.95734
G1 X154.332 Y114.9 E17.96147
G1 X153.775 Y115.4 E17.98014
G1 X153.169 Y115.837 E17.99877
G1 X152.519 Y116.208 E18.01744
G1 X151.833 Y116.507 E18.03611
G1 X151.119 Y116.731 E18.05478
G1 X150.386 Y116.878 E18.07343
G1 X149.382 Y116.95 E18.09854
G1 X143.763 Y116.95 E18.2387
G1 X143.642 Y117.037 E18.24242
G1 X142.992 Y117.408 E18.26109
G1 X142.306 Y117.707 E18.27976
G1 X141.592 Y117.931 E18.29842
G1 X140.859 Y118.078 E18.31707
G1 X139.855 Y118.15 E18.34218
G1 X62.254 Y118.15 E20.27795
G1 X61.507 Y118.11 E20.29661
G1 X60.769 Y117.991 E20.31525
G1 X60.047 Y117.793 E20.33393
G1 X59.351 Y117.52 E20.35258
G1 X58.688 Y117.173 E20.37125
G1 X58.353 Y116.95 E20.38128
G1 X50.616 Y116.95 E20.57428
G1 X49.869 Y116.91 E20.59295
G1 X49.131 Y116.791 E20.61159
G1 X48.409 Y116.593 E20.63027
G1 X47.713 Y116.32 E20.64892
G1 X47.05 Y115.973 E20.66758
G1 X46.427 Y115.558 E20.68626
G1 X45.666 Y114.9 E20.71135
G1 X45.549 Y114.783 E20.71548
G1 X45.049 Y114.226 E20.73415
G1 X44.612 Y113.62 E20.75279
G1 X44.241 Y112.97 E20.77146
G1 X43.942 Y112.284 E20.79013
G1 X43.718 Y111.57 E20.80879
G1 X43.571 Y110.837 E20.82744
G1 X43.499 Y109.831 E20.8526
G1 X43.501 Y103.318 E21.01507
G1 X43.535 Y102.692 E21.03071
G1 X43.501 Y102.225 E21.04239
G1 X43.501 Y99.625 E21.10724
G1 X43.536 Y98.967 E21.12368
G1 X43.501 Y98.476 E21.13596
G1 X43.501 Y88.967 E21.37316
G1 X43.541 Y88.22 E21.39182
G1 X43.66 Y87.482 E21.41047
G1 X43.858 Y86.76 E21.42915
G1 X44.131 Y86.064 E21.4478
G1 X44.478 Y85.401 E21.46646
G1 X44.893 Y84.778 E21.48514
G1 X45.551 Y84.017 E21.51023
G1 X45.668 Y83.9 E21.51436
G1 X46.225 Y83.4 E21.53303
G1 X46.831 Y82.963 E21.55167
G1 X47.481 Y82.592 E21.57034
G0 F4500 X47.717 Y82.922
G1 F1200 X48.386 Y82.639 E21.58846
G1 X49.082 Y82.431 E21.60658
G1 X49.797 Y82.301 E21.62471
G1 X50.618 Y82.25 E21.64522
G1 X56.899 Y82.25 E21.8019
G1 X57.624 Y82.29 E21.82002
G1 X58.341 Y82.409 E21.83815
G1 X59.04 Y82.607 E21.85627
G1 X59.713 Y82.88 E21.87439
G1 X60.352 Y83.225 E21.8925
G1 X60.949 Y83.639 E21.91062
G1 X61.566 Y84.183 E21.93114
G1 X61.683 Y84.3 E21.93527
G1 X62.167 Y84.841 E21.95338
G1 X62.345 Y85.09 E21.96101
G1 X62.465 Y84.917 E21.96627
G1 X63.009 Y84.3 E21.98679
G1 X63.126 Y84.183 E21.99091
G1 X63.667 Y83.699 E22.00902
G1 X64.258 Y83.276 E22.02715
G1 X64.892 Y82.922 E22.04526
G1 X65.561 Y82.639 E22.06338
G1 X66.257 Y82.431 E22.0815
G1 X66.972 Y82.301 E22.09963
G1 X67.793 Y82.25 E22.12015
G1 X149.384 Y82.25 E24.15545
G1 X150.109 Y82.29 E24.17356
G1 X150.826 Y82.409 E24.19169
G1 X151.525 Y82.607 E24.20981
G1 X152.198 Y82.88 E24.22793
G1 X152.837 Y83.225 E24.24604
G1 X153.434 Y83.639 E24.26417
G1 X154.051 Y84.183 E24.28469
G1 X154.168 Y84.3 E24.28881
G1 X154.652 Y84.841 E24.30692
G1 X155.075 Y85.432 E24.32505
G1 X155.429 Y86.066 E24.34316
G1 X155.712 Y86.735 E24.36128
G1 X155.92 Y87.431 E24.37941
G1 X156.05 Y88.146 E24.39753
G1 X156.101 Y88.967 E24.41805
G1 X156.101 Y98.476 E24.65526
G1 X156.067 Y99.085 E24.67047
G1 X156.101 Y99.625 E24.68397
G1 X156.101 Y102.225 E24.74883
G1 X156.069 Y102.807 E24.76337
G1 X156.101 Y103.326 E24.77634
G1 X156.099 Y109.835 E24.9387
G1 X156.059 Y110.56 E24.95682
G1 X155.939 Y111.277 E24.97495
G1 X155.742 Y111.976 E24.99307
G1 X155.468 Y112.649 E25.01119
G1 X155.123 Y113.288 E25.02931
G1 X154.709 Y113.885 E25.04743
G1 X154.166 Y114.5 E25.0679
G1 X154.049 Y114.617 E25.07202
G1 X153.508 Y115.101 E25.09013
G1 X152.917 Y115.524 E25.10826
G1 X152.283 Y115.878 E25.12637
G1 X151.614 Y116.161 E25.14449
G1 X150.918 Y116.369 E25.16261
G1 X150.203 Y116.499 E25.18074
G1 X149.382 Y116.55 E25.20126
G1 X143.633 Y116.55 E25.34467
G1 X143.39 Y116.724 E25.35213
G1 X142.756 Y117.078 E25.37024
G1 X142.087 Y117.361 E25.38836
G1 X141.391 Y117.569 E25.40648
G1 X140.676 Y117.699 E25.42461
G1 X139.855 Y117.75 E25.44513
G1 X62.254 Y117.75 E27.38089
G1 X61.529 Y117.71 E27.39901
G1 X60.812 Y117.591 E27.41714
G1 X60.113 Y117.393 E27.43526
G1 X59.44 Y117.12 E27.45338
G1 X58.801 Y116.775 E27.47149
G1 X58.477 Y116.55 E27.48133
G1 X50.616 Y116.55 E27.67742
G1 X49.891 Y116.51 E27.69554
G1 X49.174 Y116.391 E27.71367
G1 X48.475 Y116.193 E27.73179
G1 X47.802 Y115.92 E27.74991
G1 X47.163 Y115.575 E27.76802
G1 X46.566 Y115.161 E27.78614
G1 X45.949 Y114.617 E27.80666
G1 X45.832 Y114.5 E27.81079
G1 X45.348 Y113.959 E27.8289
G1 X44.925 Y113.368 E27.84703
G1 X44.571 Y112.734 E27.86514
G1 X44.288 Y112.065 E27.88326
G1 X44.08 Y111.369 E27.90138
G1 X43.95 Y110.654 E27.91951
G1 X43.899 Y109.831 E27.94008
G1 X43.901 Y103.318 E28.10255
G1 X43.933 Y102.739 E28.11701
G1 X43.901 Y102.225 E28.12986
G1 X43.901 Y99.625 E28.19472
G1 X43.935 Y99.016 E28.20993
G1 X43.901 Y98.476 E28.22343
G1 X43.901 Y88.967 E28.46063
G1 X43.941 Y88.242 E28.47874
G1 X44.06 Y87.525 E28.49687
G1 X44.258 Y86.826 E28.515
G1 X44.531 Y86.153 E28.53311
G1 X44.876 Y85.514 E28.55123
G1 X45.29 Y84.917 E28.56935
G1 X45.834 Y84.3 E28.58987
G1 X45.951 Y84.183 E28.594
G1 X46.492 Y83.699 E28.61211
G1 X47.083 Y83.276 E28.63024
G1 X47.717 Y82.922 E28.64835
G0 F4500 X47.952 Y83.253
G1 F1200 X48.603 Y82.986 E28.6659
G1 X49.281 Y82.796 E28.68346
G1 X49.976 Y82.683 E28.70103
G1 X50.618 Y82.65 E28.71707
G1 X56.899 Y82.65 E28.87375
G1 X57.602 Y82.69 E28.89131
G1 X58.296 Y82.809 E28.90887
G1 X58.971 Y83.007 E28.92642
G1 X59.62 Y83.279 E28.94398
G1 X60.234 Y83.624 E28.96154
G1 X60.805 Y84.035 E28.97909
G1 X61.283 Y84.466 E28.99515
G1 X61.4 Y84.583 E28.99928
G1 X61.869 Y85.108 E29.01684
G1 X62.275 Y85.683 E29.0344
G1 X62.347 Y85.815 E29.03815
G1 X62.45 Y85.632 E29.04339
G1 X62.861 Y85.061 E29.06094
G1 X63.292 Y84.583 E29.07699
G1 X63.409 Y84.466 E29.08112
G1 X63.934 Y83.997 E29.09868
G1 X64.509 Y83.591 E29.11624
G1 X65.127 Y83.253 E29.13381
G1 X65.778 Y82.986 E29.15136
G1 X66.456 Y82.796 E29.16892
G1 X67.151 Y82.683 E29.18649
G1 X67.793 Y82.65 E29.20253
G1 X149.384 Y82.65 E31.23782
G1 X150.087 Y82.69 E31.25539
G1 X150.781 Y82.809 E31.27295
G1 X151.456 Y83.007 E31.2905
G1 X152.105 Y83.279 E31.30805
G1 X152.719 Y83.624 E31.32562
G1 X153.29 Y84.035 E31.34317
G1 X153.768 Y84.466 E31.35922
G1 X153.885 Y84.583 E31.36335
G1 X154.354 Y85.108 E31.38091
G1 X154.76 Y85.683 E31.39847
G1 X155.098 Y86.301 E31.41604
G1 X155.365 Y86.952 E31.43359
G1 X155.555 Y87.63 E31.45116
G1 X155.668 Y88.325 E31.46872
G1 X155.701 Y88.967 E31.48476
G1 X155.701 Y98.476 E31.72196
G1 X155.67 Y99.021 E31.73558
G1 X155.701 Y99.625 E31.75067
G1 X155.701 Y102.225 E31.81552
G1 X155.671 Y102.747 E31.82857
G1 X155.701 Y103.326 E31.84303
G1 X155.699 Y109.835 E32.0054
G1 X155.659 Y110.538 E32.02296
G1 X155.539 Y111.232 E32.04053
G1 X155.342 Y111.907 E32.05807
G1 X155.069 Y112.556 E32.07563
G1 X154.724 Y113.17 E32.0932
G1 X154.312 Y113.741 E32.11077
G1 X153.883 Y114.217 E32.12675
G1 X153.766 Y114.334 E32.13088
G1 X153.241 Y114.803 E32.14844
G1 X152.666 Y115.209 E32.166
