;FLAVOR:RepRap
;TIME:8803
;Filament used: 6.49524m
;Layer height: 0.15
;Generated with Cura_SteamEngine 0.0.0-master
M190 S60
M104 S190
M109 S190
G21 ;metric values
 G90 ;absolute positioning
 M82 ;set extruder to absolute mode
 M107 ;start with the fan off
 G28 X0 Y0 ;move X/Y to min endstops
 G28 Z0 ;move Z to min endstops
 G1 Z15.0 F{travel_speed} ;move the platform down 15mm
 G92 E0 ;zero the extruded length
 G1 F200 E6 ;extrude 6 mm of feed stock
 G92 E0 ;zero the extruded length again
 G1 F{travel_speed} 
 ;Put printing message on LCD screen
 M117 Printing...
;LAYER_COUNT:38
;LAYER:0
M107
G0 F4500 X45.16 Y41.536 Z0.149
;TYPE:SKIRT
G1 F1200 X45.7 Y40.96 E0.0197
G1 X46.296 Y40.441 E0.03941
G1 X46.941 Y39.986 E0.0591
G1 X47.628 Y39.598 E0.07878
G1 X48.352 Y39.281 E0.0985
G1 X49.104 Y39.039 E0.1182
G1 X49.876 Y38.875 E0.13789
G1 X50.661 Y38.789 E0.15759
G1 X51.113 Y38.776 E0.16887
G1 X76.178 Y38.776 E0.79412
G1 X76.967 Y38.816 E0.81382
G1 X77.747 Y38.935 E0.83351
G1 X78.512 Y39.133 E0.85322
G1 X79.252 Y39.407 E0.8729
G1 X79.961 Y39.755 E0.8926
G1 X80.632 Y40.173 E0.91233
G1 X81.256 Y40.656 E0.93201
G1 X81.829 Y41.199 E0.9517
G1 X82.344 Y41.798 E0.97141
G1 X82.611 Y42.165 E0.98273
G1 X85.035 Y45.7 E1.08965
G1 X115.692 Y45.7 E1.85439
G1 X118.116 Y42.165 E1.96131
G1 X118.595 Y41.537 E1.98101
G1 X119.135 Y40.961 E2.00071
G1 X119.731 Y40.442 E2.02042
G1 X120.376 Y39.986 E2.04013
G1 X121.063 Y39.598 E2.05981
G1 X121.787 Y39.282 E2.07952
G1 X122.538 Y39.04 E2.0992
G1 X123.311 Y38.875 E2.11891
G1 X124.096 Y38.789 E2.13861
G1 X124.549 Y38.776 E2.14992
G1 X143.985 Y38.776 E2.63475
G1 X144.774 Y38.816 E2.65446
G1 X145.554 Y38.935 E2.67414
G1 X146.319 Y39.133 E2.69385
G1 X147.059 Y39.407 E2.71354
G1 X147.768 Y39.755 E2.73324
G1 X148.439 Y40.173 E2.75296
G1 X149.063 Y40.656 E2.77264
G1 X149.636 Y41.199 E2.79233
G1 X150.151 Y41.798 E2.81204
G1 X150.602 Y42.446 E2.83173
G1 X150.986 Y43.137 E2.85145
G1 X151.298 Y43.862 E2.87114
G1 X151.535 Y44.615 E2.89083
G1 X151.694 Y45.389 E2.91055
G1 X151.726 Y45.7 E2.91834
G1 X156.364 Y45.7 E3.03404
G1 X157.153 Y45.74 E3.05375
G1 X157.933 Y45.859 E3.07343
G1 X158.698 Y46.057 E3.09314
G1 X159.438 Y46.331 E3.11283
G1 X160.147 Y46.679 E3.13253
G1 X160.818 Y47.097 E3.15225
G1 X161.442 Y47.58 E3.17193
G1 X162.015 Y48.123 E3.19162
G1 X162.53 Y48.722 E3.21133
G1 X162.981 Y49.37 E3.23102
G1 X163.365 Y50.061 E3.25074
G1 X163.677 Y50.786 E3.27043
G1 X163.914 Y51.539 E3.29012
G1 X164.073 Y52.313 E3.30983
G1 X164.154 Y53.098 E3.32952
G1 X164.164 Y53.5 E3.33955
G1 X164.164 Y146.486 E5.6591
G1 X164.124 Y147.275 E5.6788
G1 X164.005 Y148.055 E5.69849
G1 X163.807 Y148.82 E5.7182
G1 X163.533 Y149.56 E5.73788
G1 X163.185 Y150.269 E5.75758
G1 X162.767 Y150.94 E5.7773
G1 X162.284 Y151.564 E5.79699
G1 X161.741 Y152.137 E5.81668
G1 X161.142 Y152.652 E5.83638
G1 X160.494 Y153.103 E5.85608
G1 X159.803 Y153.487 E5.8758
G1 X159.078 Y153.799 E5.89549
G1 X158.325 Y154.036 E5.91518
G1 X157.551 Y154.195 E5.93489
G1 X156.766 Y154.276 E5.95458
G1 X156.364 Y154.286 E5.96461
G1 X151.734 Y154.286 E6.0801
G1 X151.626 Y154.993 E6.09794
G1 X151.428 Y155.758 E6.11766
G1 X151.154 Y156.498 E6.13734
G1 X150.806 Y157.207 E6.15704
G1 X150.388 Y157.878 E6.17676
G1 X149.905 Y158.502 E6.19645
G1 X149.362 Y159.075 E6.21614
G1 X148.763 Y159.59 E6.23584
G1 X148.115 Y160.041 E6.25554
G1 X147.424 Y160.425 E6.27526
G1 X146.699 Y160.737 E6.29495
G1 X145.946 Y160.974 E6.31464
G1 X145.172 Y161.133 E6.33435
G1 X144.387 Y161.214 E6.35403
G1 X143.985 Y161.224 E6.36407
G1 X124.549 Y161.224 E6.8489
G1 X123.76 Y161.184 E6.86861
G1 X122.98 Y161.065 E6.88829
G1 X122.215 Y160.867 E6.908
G1 X121.475 Y160.593 E6.92768
G1 X120.766 Y160.245 E6.94739
G1 X120.095 Y159.827 E6.96711
G1 X119.471 Y159.344 E6.98679
G1 X118.898 Y158.801 E7.00648
G1 X118.383 Y158.202 E7.02619
G1 X118.116 Y157.835 E7.03751
G1 X115.692 Y154.3 E7.14443
G1 X85.035 Y154.3 E7.90917
G1 X82.611 Y157.835 E8.01609
G1 X82.132 Y158.463 E8.03579
G1 X81.592 Y159.039 E8.05549
G1 X80.996 Y159.558 E8.0752
G1 X80.351 Y160.014 E8.09491
G1 X79.664 Y160.402 E8.11459
G1 X78.94 Y160.718 E8.1343
G1 X78.189 Y160.96 E8.15398
G1 X77.416 Y161.125 E8.17369
G1 X76.631 Y161.211 E8.19339
G1 X76.178 Y161.224 E8.2047
G1 X51.113 Y161.224 E8.82995
G1 X50.324 Y161.184 E8.84965
G1 X49.544 Y161.065 E8.86934
G1 X48.779 Y160.867 E8.88905
G1 X48.039 Y160.593 E8.90873
G1 X47.33 Y160.245 E8.92843
G1 X46.659 Y159.827 E8.94815
G1 X46.035 Y159.344 E8.96784
G1 X45.462 Y158.801 E8.98753
G1 X44.947 Y158.202 E9.00724
G1 X44.681 Y157.836 E9.01852
G1 X40.294 Y151.441 E9.21197
G1 X38.953 Y150.434 E9.25381
G1 X38.346 Y149.928 E9.27352
G1 X37.794 Y149.364 E9.29321
G1 X37.301 Y148.747 E9.31291
G1 X36.874 Y148.083 E9.3326
G1 X36.515 Y147.379 E9.35231
G1 X36.23 Y146.643 E9.372
G1 X36.02 Y145.882 E9.39169
G1 X35.889 Y145.103 E9.4114
G1 X35.836 Y144.196 E9.43406
G1 X35.836 Y136.341 E9.63001
G1 X35.876 Y135.552 E9.64971
G1 X35.995 Y134.772 E9.6694
G1 X36.193 Y134.007 E9.68911
G1 X36.467 Y133.267 E9.70879
G1 X36.815 Y132.558 E9.72849
G1 X37.233 Y131.887 E9.74821
G1 X37.716 Y131.263 E9.7679
G1 X38.259 Y130.69 E9.78759
G1 X38.564 Y130.432 E9.79756
G1 X38.564 Y70.076 E11.30314
G1 X38.346 Y69.894 E11.31023
G1 X37.794 Y69.33 E11.32991
G1 X37.301 Y68.713 E11.34961
G1 X36.874 Y68.049 E11.36931
G1 X36.515 Y67.345 E11.38902
G1 X36.23 Y66.609 E11.40871
G1 X36.02 Y65.848 E11.4284
G1 X35.889 Y65.069 E11.4481
G1 X35.836 Y64.162 E11.47077
G1 X35.836 Y56.307 E11.66671
G1 X35.876 Y55.518 E11.68642
G1 X35.995 Y54.738 E11.7061
G1 X36.193 Y53.973 E11.72581
G1 X36.467 Y53.233 E11.7455
G1 X36.815 Y52.524 E11.7652
G1 X37.233 Y51.853 E11.78492
G1 X37.716 Y51.229 E11.8046
G1 X38.259 Y50.656 E11.8243
G1 X38.952 Y50.07 E11.84693
G1 X39.647 Y49.548 E11.86862
G1 X39.932 Y49.087 E11.88214
G1 X44.681 Y42.164 E12.09156
G1 X45.16 Y41.536 E12.11126
G0 F4500 X45.478 Y41.779
G1 F1200 X46.007 Y41.22 E12.13046
G1 X46.59 Y40.719 E12.14963
G1 X47.222 Y40.281 E12.16881
G1 X47.897 Y39.911 E12.18802
G1 X48.606 Y39.614 E12.20719
G1 X49.342 Y39.391 E12.22638
G1 X50.098 Y39.246 E12.24558
G1 X51.113 Y39.176 E12.27096
G1 X76.178 Y39.176 E12.89621
G1 X76.946 Y39.216 E12.91539
G1 X77.706 Y39.335 E12.93458
G1 X78.449 Y39.533 E12.95376
G1 X79.168 Y39.807 E12.97295
G1 X79.854 Y40.154 E12.99213
G1 X80.501 Y40.57 E13.01132
G1 X81.101 Y41.051 E13.0305
G1 X81.648 Y41.592 E13.04969
G1 X82.281 Y42.391 E13.07512
G1 X84.824 Y46.1 E13.1873
G1 X115.903 Y46.1 E13.96257
G1 X118.446 Y42.391 E14.07475
G1 X118.913 Y41.78 E14.09393
G1 X119.442 Y41.221 E14.11313
G1 X120.025 Y40.72 E14.13231
G1 X120.657 Y40.282 E14.15149
G1 X121.332 Y39.912 E14.17069
G1 X122.041 Y39.614 E14.18987
G1 X122.777 Y39.391 E14.20906
G1 X123.532 Y39.246 E14.22823
G1 X124.549 Y39.176 E14.25366
G1 X143.985 Y39.176 E14.7385
G1 X144.753 Y39.216 E14.75768
G1 X145.513 Y39.335 E14.77687
G1 X146.256 Y39.533 E14.79605
G1 X146.975 Y39.807 E14.81524
G1 X147.661 Y40.154 E14.83442
G1 X148.308 Y40.57 E14.85361
G1 X148.908 Y41.051 E14.87279
G1 X149.455 Y41.592 E14.89198
G1 X149.943 Y42.187 E14.91118
G1 X150.366 Y42.829 E14.93036
G1 X150.721 Y43.512 E14.94956
G1 X151.002 Y44.227 E14.96872
G1 X151.208 Y44.969 E14.98793
G1 X151.336 Y45.727 E15.00711
G1 X151.358 Y46.1 E15.01643
G1 X156.364 Y46.1 E15.1413
G1 X157.132 Y46.14 E15.16049
G1 X157.892 Y46.259 E15.17968
G1 X158.635 Y46.457 E15.19886
G1 X159.354 Y46.731 E15.21805
G1 X160.04 Y47.078 E15.23723
G1 X160.687 Y47.494 E15.25642
G1 X161.287 Y47.975 E15.2756
G1 X161.834 Y48.516 E15.29479
G1 X162.322 Y49.111 E15.31399
G1 X162.745 Y49.753 E15.33317
G1 X163.1 Y50.436 E15.35237
G1 X163.381 Y51.151 E15.37153
G1 X163.587 Y51.893 E15.39074
G1 X163.715 Y52.651 E15.40992
G1 X163.764 Y53.5 E15.43113
G1 X163.764 Y146.486 E17.75068
G1 X163.724 Y147.254 E17.76986
G1 X163.605 Y148.014 E17.78905
G1 X163.407 Y148.757 E17.80823
G1 X163.133 Y149.476 E17.82742
G1 X162.786 Y150.162 E17.8466
G1 X162.37 Y150.809 E17.86579
G1 X161.889 Y151.409 E17.88497
G1 X161.348 Y151.956 E17.90416
G1 X160.753 Y152.444 E17.92336
G1 X160.111 Y152.867 E17.94254
G1 X159.428 Y153.222 E17.96174
G1 X158.713 Y153.503 E17.9809
G1 X157.971 Y153.709 E18.00011
G1 X157.213 Y153.837 E18.01929
G1 X156.364 Y153.886 E18.0405
G1 X151.361 Y153.886 E18.1653
G1 X151.345 Y154.192 E18.17294
G1 X151.226 Y154.952 E18.19213
G1 X151.028 Y155.695 E18.21131
G1 X150.754 Y156.414 E18.23051
G1 X150.407 Y157.1 E18.24969
G1 X149.991 Y157.747 E18.26887
G1 X149.51 Y158.347 E18.28806
G1 X148.969 Y158.894 E18.30725
G1 X148.374 Y159.382 E18.32644
G1 X147.732 Y159.805 E18.34562
G1 X147.049 Y160.16 E18.36482
G1 X146.334 Y160.441 E18.38399
G1 X145.592 Y160.647 E18.4032
G1 X144.834 Y160.775 E18.42237
G1 X143.985 Y160.824 E18.44359
G1 X124.549 Y160.824 E18.92842
G1 X123.781 Y160.784 E18.9476
G1 X123.021 Y160.665 E18.96679
G1 X122.278 Y160.467 E18.98597
G1 X121.559 Y160.193 E19.00517
G1 X120.873 Y159.846 E19.02434
G1 X120.226 Y159.43 E19.04353
G1 X119.626 Y158.949 E19.06271
G1 X119.079 Y158.408 E19.08191
G1 X118.446 Y157.609 E19.10733
G1 X115.903 Y153.9 E19.21951
G1 X84.824 Y153.9 E19.99478
G1 X82.281 Y157.609 E20.10696
G1 X81.814 Y158.22 E20.12614
G1 X81.285 Y158.779 E20.14534
G1 X80.702 Y159.28 E20.16452
G1 X80.07 Y159.718 E20.1837
G1 X79.395 Y160.088 E20.2029
G1 X78.686 Y160.386 E20.22209
G1 X77.95 Y160.609 E20.24127
G1 X77.195 Y160.754 E20.26045
G1 X76.178 Y160.824 E20.28588
G1 X51.113 Y160.824 E20.91113
G1 X50.345 Y160.784 E20.93031
G1 X49.585 Y160.665 E20.9495
G1 X48.842 Y160.467 E20.96868
G1 X48.123 Y160.193 E20.98787
G1 X47.437 Y159.846 E21.00705
G1 X46.79 Y159.43 E21.02624
G1 X46.19 Y158.949 E21.04542
G1 X45.643 Y158.408 E21.06461
G1 X45.011 Y157.61 E21.09001
G1 X40.587 Y151.16 E21.28511
G1 X39.193 Y150.114 E21.32859
G1 X38.603 Y149.621 E21.34776
G1 X38.067 Y149.069 E21.36696
G1 X37.591 Y148.465 E21.38614
G1 X37.181 Y147.814 E21.40533
G1 X36.84 Y147.125 E21.42451
G1 X36.573 Y146.403 E21.44371
G1 X36.382 Y145.658 E21.4629
G1 X36.269 Y144.897 E21.48209
G1 X36.236 Y144.196 E21.49959
G1 X36.236 Y136.341 E21.69554
G1 X36.276 Y135.573 E21.71472
G1 X36.395 Y134.813 E21.73391
G1 X36.593 Y134.07 E21.75309
G1 X36.867 Y133.351 E21.77229
G1 X37.214 Y132.665 E21.79146
G1 X37.63 Y132.018 E21.81065
G1 X38.111 Y131.418 E21.82983
G1 X38.652 Y130.871 E21.84903
G1 X38.964 Y130.613 E21.85912
G1 X38.964 Y69.889 E23.37389
G1 X38.603 Y69.587 E23.38563
G1 X38.067 Y69.035 E23.40482
G1 X37.591 Y68.431 E23.42401
G1 X37.181 Y67.78 E23.4432
G1 X36.84 Y67.091 E23.46238
G1 X36.573 Y66.369 E23.48158
G1 X36.382 Y65.624 E23.50076
G1 X36.269 Y64.863 E23.51996
G1 X36.236 Y64.162 E23.53746
G1 X36.236 Y56.307 E23.7334
G1 X36.276 Y55.539 E23.75259
G1 X36.395 Y54.779 E23.77178
G1 X36.593 Y54.036 E23.79096
G1 X36.867 Y53.317 E23.81015
G1 X37.214 Y52.631 E23.82933
G1 X37.63 Y51.984 E23.84852
G1 X38.111 Y51.384 E23.8677
G1 X38.652 Y50.837 E23.88689
G1 X39.192 Y50.39 E23.90438
G1 X39.939 Y49.829 E23.92768
G1 X39.942 Y49.823 E23.92785
G1 X40.262 Y49.313 E23.94287
G1 X45.011 Y42.39 E24.15229
G1 X45.478 Y41.779 E24.17147
G0 F4500 X45.796 Y42.023
G1 F1200 X46.312 Y41.482 E24.19012
G1 X46.883 Y40.998 E24.20879
G1 X47.503 Y40.579 E24.22746
G1 X48.163 Y40.228 E24.24611
G1 X48.858 Y39.949 E24.26479
G1 X49.578 Y39.746 E24.28345
G1 X50.315 Y39.622 E24.30209
G1 X51.113 Y39.576 E24.32203
G1 X76.178 Y39.576 E24.94728
G1 X76.925 Y39.616 E24.96594
G1 X77.663 Y39.735 E24.98459
G1 X78.385 Y39.933 E25.00327
G1 X79.081 Y40.206 E25.02191
G1 X79.744 Y40.553 E25.04058
G1 X80.367 Y40.968 E25.05925
G1 X80.941 Y41.447 E25.0779
G1 X81.462 Y41.984 E25.09657
G1 X81.951 Y42.617 E25.11652
G1 X84.614 Y46.5 E25.23397
G1 X116.113 Y46.5 E26.01972
G1 X118.776 Y42.617 E26.13717
G1 X119.231 Y42.024 E26.15582
G1 X119.748 Y41.482 E26.1745
G1 X120.318 Y40.999 E26.19314
G1 X120.938 Y40.579 E26.21182
G1 X121.598 Y40.228 E26.23047
G1 X122.293 Y39.95 E26.24914
G1 X123.013 Y39.747 E26.2678
G1 X123.75 Y39.622 E26.28645
G1 X124.549 Y39.576 E26.30641
G1 X143.985 Y39.576 E26.79124
G1 X144.732 Y39.616 E26.8099
G1 X145.47 Y39.735 E26.82855
G1 X146.192 Y39.933 E26.84723
G1 X146.888 Y40.206 E26.86588
G1 X147.551 Y40.553 E26.88454
G1 X148.174 Y40.968 E26.90322
G1 X148.748 Y41.447 E26.92186
G1 X149.269 Y41.984 E26.94053
G1 X149.728 Y42.574 E26.95918
G1 X150.123 Y43.21 E26.97785
G1 X150.447 Y43.884 E26.99651
G1 X150.697 Y44.589 E27.01517
G1 X150.871 Y45.317 E27.03384
G1 X150.966 Y46.059 E27.0525
G1 X150.982 Y46.5 E27.06351
G1 X156.364 Y46.5 E27.19776
G1 X157.111 Y46.54 E27.21642
G1 X157.849 Y46.659 E27.23507
G1 X158.571 Y46.857 E27.25374
G1 X159.267 Y47.13 E27.27239
G1 X159.93 Y47.477 E27.29106
G1 X160.553 Y47.892 E27.30973
G1 X161.127 Y48.371 E27.32838
G1 X161.648 Y48.908 E27.34705
G1 X162.107 Y49.498 E27.36569
G1 X162.502 Y50.134 E27.38437
G1 X162.826 Y50.808 E27.40302
G1 X163.076 Y51.513 E27.42168
G1 X163.25 Y52.241 E27.44035
G1 X163.345 Y52.983 E27.45901
G1 X163.364 Y53.5 E27.47192
G1 X163.364 Y146.486 E29.79147
G1 X163.324 Y147.233 E29.81013
G1 X163.205 Y147.971 E29.82877
G1 X163.007 Y148.693 E29.84745
G1 X162.734 Y149.389 E29.8661
G1 X162.387 Y150.052 E29.88477
G1 X161.972 Y150.675 E29.90344
G1 X161.493 Y151.249 E29.92209
G1 X160.956 Y151.77 E29.94075
G1 X160.366 Y152.229 E29.9594
G1 X159.73 Y152.624 E29.97807
G1 X159.056 Y152.948 E29.99673
G1 X158.351 Y153.198 E30.01539
G1 X157.623 Y153.372 E30.03406
G1 X156.881 Y153.467 E30.05272
G1 X156.364 Y153.486 E30.06563
G1 X150.982 Y153.486 E30.19988
G1 X150.945 Y154.171 E30.21699
G1 X150.826 Y154.909 E30.23564
G1 X150.628 Y155.631 E30.25431
G1 X150.355 Y156.327 E30.27296
G1 X150.008 Y156.99 E30.29163
G1 X149.593 Y157.613 E30.3103
G1 X149.114 Y158.187 E30.32895
G1 X148.577 Y158.708 E30.34762
G1 X147.987 Y159.167 E30.36626
G1 X147.351 Y159.562 E30.38494
G1 X146.677 Y159.886 E30.4036
G1 X145.972 Y160.136 E30.42225
G1 X145.244 Y160.31 E30.44093
G1 X144.502 Y160.405 E30.45959
G1 X143.985 Y160.424 E30.47249
G1 X124.549 Y160.424 E30.95732
G1 X123.802 Y160.384 E30.97599
G1 X123.064 Y160.265 E30.99463
G1 X122.342 Y160.067 E31.01331
G1 X121.646 Y159.794 E31.03196
G1 X120.983 Y159.447 E31.05062
G1 X120.36 Y159.032 E31.0693
G1 X119.786 Y158.553 E31.08795
G1 X119.265 Y158.016 E31.10661
G1 X118.776 Y157.383 E31.12656
G1 X116.113 Y153.5 E31.24402
G1 X84.614 Y153.5 E32.02976
G1 X81.951 Y157.383 E32.14721
G1 X81.496 Y157.976 E32.16586
G1 X80.979 Y158.518 E32.18454
G1 X80.409 Y159.001 E32.20318
G1 X79.789 Y159.421 E32.22186
G1 X79.129 Y159.772 E32.24051
G1 X78.434 Y160.05 E32.25918
G1 X77.714 Y160.253 E32.27784
G1 X76.977 Y160.378 E32.29649
G1 X76.178 Y160.424 E32.31645
G1 X51.113 Y160.424 E32.9417
G1 X50.366 Y160.384 E32.96036
G1 X49.628 Y160.265 E32.97901
G1 X48.906 Y160.067 E32.99768
G1 X48.21 Y159.794 E33.01633
G1 X47.547 Y159.447 E33.035
G1 X46.924 Y159.032 E33.05367
G1 X46.35 Y158.553 E33.07232
G1 X45.829 Y158.016 E33.09099
G1 X45.341 Y157.384 E33.11091
G1 X40.879 Y150.88 E33.30766
G1 X39.433 Y149.794 E33.35277
G1 X38.86 Y149.314 E33.37142
G1 X38.341 Y148.775 E33.39008
G1 X37.883 Y148.184 E33.40873
G1 X37.49 Y147.547 E33.4274
G1 X37.168 Y146.872 E33.44606
G1 X36.919 Y146.166 E33.46473
G1 X36.747 Y145.438 E33.48339
G1 X36.654 Y144.696 E33.50205
G1 X36.636 Y144.196 E33.51453
G1 X36.636 Y136.341 E33.71047
G1 X36.676 Y135.594 E33.72913
G1 X36.795 Y134.856 E33.74778
G1 X36.993 Y134.134 E33.76645
G1 X37.266 Y133.438 E33.7851
G1 X37.613 Y132.775 E33.80377
G1 X38.028 Y132.152 E33.82244
G1 X38.507 Y131.578 E33.84109
G1 X39.044 Y131.057 E33.85976
G1 X39.364 Y130.799 E33.87001
G1 X39.364 Y69.702 E35.39408
G1 X38.86 Y69.28 E35.41048
G1 X38.341 Y68.741 E35.42914
G1 X37.883 Y68.15 E35.4478
G1 X37.49 Y67.513 E35.46647
G1 X37.168 Y66.838 E35.48512
G1 X36.919 Y66.132 E35.5038
G1 X36.747 Y65.404 E35.52246
G1 X36.654 Y64.662 E35.54111
G1 X36.636 Y64.162 E35.55359
G1 X36.636 Y56.307 E35.74954
G1 X36.676 Y55.56 E35.7682
G1 X36.795 Y54.822 E35.78684
G1 X36.993 Y54.1 E35.80552
G1 X37.266 Y53.404 E35.82417
G1 X37.613 Y52.741 E35.84283
G1 X38.028 Y52.118 E35.86151
G1 X38.507 Y51.544 E35.88016
G1 X39.044 Y51.023 E35.89882
G1 X39.432 Y50.71 E35.91126
G1 X40.26 Y50.088 E35.93709
G1 X40.341 Y49.933 E35.94145
G1 X40.592 Y49.539 E35.95311
