;FLAVOR:RepRap
;TIME:6137
;Filament used: 4.11103m
;Layer height: 0.15
;Generated with Cura_SteamEngine 0.0.0-master
M190 S60
M104 S190
M109 S190
G21 ;metric values
 G90 ;absolute positioning
 M82 ;set extruder to absolute mode
 M107 ;start with the fan off
 G28 X0 Y0 ;move X/Y to min endstops
 G28 Z0 ;move Z to min endstops
 G1 Z15.0 F{travel_speed} ;move the platform down 15mm
 G92 E0 ;zero the extruded length
 G1 F200 E6 ;extrude 6 mm of feed stock
 G92 E0 ;zero the extruded length again
 G1 F{travel_speed} 
 ;Put printing message on LCD screen
 M117 Printing...
;LAYER_COUNT:111
;LAYER:-6
M107
G0 F4500 X43.71 Y75.989 Z0.179
G1 F900 X44.661 Y75.52 E0.06313
G1 X45.647 Y75.123 E0.12641
G1 X46.658 Y74.798 E0.18964
G1 X47.701 Y74.544 E0.25355
G1 X48.765 Y74.368 E0.31775
G1 X49.804 Y74.273 E0.37987
G1 X50.643 Y74.25 E0.42984
G1 X56.894 Y74.25 E0.80199
G1 X57.956 Y74.288 E0.86526
G1 X59.044 Y74.409 E0.93044
G1 X60.066 Y74.597 E0.9923
G1 X61.09 Y74.865 E1.05532
G1 X62.392 Y75.308 E1.1372
G1 X62.839 Y75.117 E1.16614
G1 X63.833 Y74.798 E1.22829
G1 X64.876 Y74.544 E1.2922
G1 X65.94 Y74.368 E1.35641
G1 X66.979 Y74.273 E1.41852
G1 X67.818 Y74.25 E1.46849
G1 X149.379 Y74.25 E6.32428
G1 X150.441 Y74.288 E6.38755
G1 X151.529 Y74.409 E6.45272
G1 X152.551 Y74.597 E6.51459
G1 X153.575 Y74.865 E6.5776
G1 X154.614 Y75.219 E6.64295
G1 X155.573 Y75.626 E6.70498
G1 X156.531 Y76.118 E6.76909
G1 X157.438 Y76.672 E6.83237
G1 X158.308 Y77.294 E6.89604
G1 X159.119 Y77.971 E6.95894
G1 X159.718 Y78.536 E7.00796
G1 X159.812 Y78.63 E7.01587
G1 X160.56 Y79.434 E7.08125
G1 X161.212 Y80.249 E7.14339
G1 X161.819 Y81.131 E7.20714
G1 X162.362 Y82.059 E7.27115
G1 X162.831 Y83.01 E7.33428
G1 X163.228 Y83.996 E7.39756
G1 X163.553 Y85.007 E7.46078
G1 X163.807 Y86.05 E7.52469
G1 X163.984 Y87.119 E7.5892
G1 X164.078 Y88.149 E7.65078
G1 X164.101 Y88.981 E7.70033
G1 X164.101 Y95.656 E8.09773
G1 X164.696 Y96.608 E8.16457
G1 X165.204 Y97.569 E8.22929
G1 X165.625 Y98.532 E8.29186
G1 X165.98 Y99.537 E8.35531
G1 X166.263 Y100.573 E8.41925
G1 X166.468 Y101.624 E8.483
G1 X166.594 Y102.673 E8.54591
G1 X166.647 Y103.914 E8.61986
G1 X166.647 Y107.816 E8.85217
G1 X166.609 Y108.871 E8.91502
G1 X166.488 Y109.958 E8.98013
G1 X166.3 Y110.98 E9.042
G1 X166.032 Y112.004 E9.10502
G1 X165.678 Y113.043 E9.17036
G1 X165.271 Y114.002 E9.23239
G1 X164.78 Y114.957 E9.29632
G1 X164.225 Y115.867 E9.35978
G1 X163.603 Y116.737 E9.42345
G1 X162.925 Y117.552 E9.48657
G1 X162.194 Y118.31 E9.54926
G1 X161.391 Y119.029 E9.61343
G1 X160.532 Y119.693 E9.67807
G1 X159.807 Y120.174 E9.72987
G1 X159.719 Y120.261 E9.73724
G1 X158.915 Y121.009 E9.80262
G1 X158.1 Y121.661 E9.86475
G1 X157.218 Y122.268 E9.9285
G1 X156.29 Y122.811 E9.99251
G1 X155.339 Y123.28 E10.05564
G1 X154.353 Y123.677 E10.11892
G1 X153.342 Y124.002 E10.18214
G1 X152.299 Y124.256 E10.24605
G1 X151.235 Y124.432 E10.31026
G1 X150.196 Y124.527 E10.37238
G1 X149.357 Y124.55 E10.42235
G1 X145.636 Y124.55 E10.64388
G1 X144.82 Y124.879 E10.69626
G1 X143.815 Y125.202 E10.75911
G1 X142.772 Y125.456 E10.82302
G1 X141.708 Y125.632 E10.88722
G1 X140.669 Y125.727 E10.94934
G1 X139.83 Y125.75 E10.99931
G1 X62.259 Y125.75 E15.61755
G1 X61.197 Y125.712 E15.68082
G1 X60.109 Y125.591 E15.74599
G1 X59.087 Y125.403 E15.80786
G1 X58.063 Y125.135 E15.87087
G1 X57.03 Y124.783 E15.93585
G1 X56.482 Y124.55 E15.9713
G1 X50.621 Y124.55 E16.32024
G1 X49.559 Y124.512 E16.3835
G1 X48.471 Y124.391 E16.44868
G1 X47.449 Y124.203 E16.51055
G1 X46.425 Y123.935 E16.57356
G1 X45.386 Y123.581 E16.63891
G1 X44.427 Y123.174 E16.70094
G1 X43.469 Y122.682 E16.76505
G1 X42.562 Y122.128 E16.82833
G1 X41.692 Y121.506 E16.892
G1 X40.881 Y120.829 E16.9549
G1 X40.282 Y120.264 E17.00392
G1 X40.192 Y120.174 E17.0115
G1 X39.644 Y119.586 E17.05935
G1 X39.493 Y119.482 E17.07027
G1 X38.665 Y118.831 E17.13297
G1 X37.868 Y118.104 E17.1972
G1 X37.135 Y117.331 E17.26062
G1 X36.459 Y116.503 E17.32426
G1 X35.846 Y115.631 E17.38772
G1 X35.305 Y114.726 E17.45049
G1 X34.82 Y113.767 E17.51447
G1 X34.415 Y112.791 E17.57738
G1 X34.079 Y111.777 E17.64098
G1 X33.815 Y110.731 E17.70521
G1 X33.632 Y109.689 E17.76819
G1 X33.524 Y108.622 E17.83204
G1 X33.493 Y107.696 E17.8872
G1 X33.494 Y103.094 E18.16118
G1 X33.532 Y102.039 E18.22404
G1 X33.653 Y100.95 E18.28927
G1 X33.841 Y99.93 E18.35102
G1 X34.109 Y98.908 E18.41392
G1 X34.46 Y97.877 E18.47876
G1 X34.877 Y96.898 E18.54211
G1 X35.36 Y95.955 E18.60519
G1 X35.901 Y95.073 E18.66679
G1 X35.901 Y88.964 E19.0305
G1 X35.939 Y87.909 E19.09335
G1 X36.06 Y86.82 E19.15858
G1 X36.248 Y85.8 E19.22033
G1 X36.516 Y84.776 E19.28335
G1 X36.872 Y83.731 E19.34907
G1 X37.277 Y82.778 E19.41072
G1 X37.769 Y81.82 E19.47484
G1 X38.323 Y80.913 E19.53811
G1 X38.945 Y80.043 E19.60179
G1 X39.622 Y79.232 E19.66468
G1 X40.187 Y78.633 E19.7137
G1 X40.281 Y78.539 E19.72162
G1 X41.085 Y77.791 E19.787
G1 X41.9 Y77.139 E19.84914
G1 X42.782 Y76.532 E19.91288
G1 X43.71 Y75.989 E19.97689
G0 F4500 X43.2 Y76.287
G1 F900 X43.2 Y122.517 E22.72922
G0 F4500 X44.8 Y123.332
G1 F900 X44.8 Y75.464 E25.57908
G0 F4500 X46.4 Y74.88
G1 F900 X46.4 Y123.926 E28.49906
G0 F4500 X48 Y124.304
G1 F900 X48 Y74.494 E31.46453
G0 F4500 X49.6 Y74.291
G1 F900 X49.6 Y124.513 E34.45453
G0 F4500 X51.2 Y124.55
G1 F900 X51.2 Y74.25 E37.44917
G0 F4500 X52.8 Y74.25
G1 F900 X52.8 Y124.55 E40.44382
G0 F4500 X54.4 Y124.55
G1 F900 X54.4 Y74.25 E43.43846
G0 F4500 X56 Y74.25
G1 F900 X56 Y124.55 E46.4331
G0 F4500 X57.6 Y124.977
G1 F900 X57.6 Y74.276 E49.45162
G0 F4500 X59.2 Y74.438
G1 F900 X59.2 Y125.423 E52.48704
G0 F4500 X60.8 Y125.667
G1 F900 X60.8 Y74.79 E55.51604
G0 F4500 X62.4 Y75.304
G1 F900 X62.4 Y125.75 E58.51937
G0 F4500 X64 Y125.75
G1 F900 X64 Y74.757 E61.55527
G0 F4500 X65.6 Y74.424
G1 F900 X65.6 Y125.75 E64.611
G0 F4500 X67.2 Y125.75
G1 F900 X67.2 Y74.266 E67.67613
G0 F4500 X68.8 Y74.25
G1 F900 X68.8 Y125.75 E70.74222
G0 F4500 X70.4 Y125.75
G1 F900 X70.4 Y74.25 E73.8083
G0 F4500 X72 Y74.25
G1 F900 X72 Y125.75 E76.87439
G0 F4500 X73.6 Y125.75
G1 F900 X73.6 Y74.25 E79.94048
G0 F4500 X75.2 Y74.25
G1 F900 X75.2 Y125.75 E83.00656
G0 F4500 X76.8 Y125.75
G1 F900 X76.8 Y74.25 E86.07265
G0 F4500 X78.4 Y74.25
G1 F900 X78.4 Y125.75 E89.13873
G0 F4500 X80 Y125.75
G1 F900 X80 Y74.25 E92.20482
G0 F4500 X81.6 Y74.25
G1 F900 X81.6 Y125.75 E95.2709
G0 F4500 X83.2 Y125.75
G1 F900 X83.2 Y74.25 E98.33699
G0 F4500 X84.8 Y74.25
G1 F900 X84.8 Y125.75 E101.40307
G0 F4500 X86.4 Y125.75
G1 F900 X86.4 Y74.25 E104.46916
G0 F4500 X88 Y74.25
G1 F900 X88 Y125.75 E107.53525
G0 F4500 X89.6 Y125.75
G1 F900 X89.6 Y74.25 E110.60133
G0 F4500 X91.2 Y74.25
G1 F900 X91.2 Y125.75 E113.66742
G0 F4500 X92.8 Y125.75
G1 F900 X92.8 Y74.25 E116.7335
G0 F4500 X94.4 Y74.25
G1 F900 X94.4 Y125.75 E119.79959
G0 F4500 X96 Y125.75
G1 F900 X96 Y74.25 E122.86567
G0 F4500 X97.6 Y74.25
G1 F900 X97.6 Y125.75 E125.93176
G0 F4500 X99.2 Y125.75
G1 F900 X99.2 Y74.25 E128.99784
G0 F4500 X100.8 Y74.25
G1 F900 X100.8 Y125.75 E132.06393
G0 F4500 X102.4 Y125.75
G1 F900 X102.4 Y74.25 E135.13002
G0 F4500 X104 Y74.25
G1 F900 X104 Y125.75 E138.1961
G0 F4500 X105.6 Y125.75
G1 F900 X105.6 Y74.25 E141.26219
G0 F4500 X107.2 Y74.25
G1 F900 X107.2 Y125.75 E144.32827
G0 F4500 X108.8 Y125.75
G1 F900 X108.8 Y74.25 E147.39436
G0 F4500 X110.4 Y74.25
G1 F900 X110.4 Y125.75 E150.46044
G0 F4500 X112 Y125.75
G1 F900 X112 Y74.25 E153.52653
G0 F4500 X113.6 Y74.25
G1 F900 X113.6 Y125.75 E156.59261
G0 F4500 X115.2 Y125.75
G1 F900 X115.2 Y74.25 E159.6587
G0 F4500 X116.8 Y74.25
G1 F900 X116.8 Y125.75 E162.72479
G0 F4500 X118.4 Y125.75
G1 F900 X118.4 Y74.25 E165.79087
G0 F4500 X120 Y74.25
G1 F900 X120 Y125.75 E168.85696
G0 F4500 X121.6 Y125.75
G1 F900 X121.6 Y74.25 E171.92304
G0 F4500 X123.2 Y74.25
G1 F900 X123.2 Y125.75 E174.98913
G0 F4500 X124.8 Y125.75
G1 F900 X124.8 Y74.25 E178.05521
G0 F4500 X126.4 Y74.25
G1 F900 X126.4 Y125.75 E181.1213
G0 F4500 X128 Y125.75
G1 F900 X128 Y74.25 E184.18738
G0 F4500 X129.6 Y74.25
G1 F900 X129.6 Y125.75 E187.25347
G0 F4500 X131.2 Y125.75
G1 F900 X131.2 Y74.25 E190.31956
G0 F4500 X132.8 Y74.25
G1 F900 X132.8 Y125.75 E193.38564
G0 F4500 X134.4 Y125.75
G1 F900 X134.4 Y74.25 E196.45173
G0 F4500 X136 Y74.25
G1 F900 X136 Y125.75 E199.51781
G0 F4500 X137.6 Y125.75
G1 F900 X137.6 Y74.25 E202.5839
G0 F4500 X139.2 Y74.25
G1 F900 X139.2 Y125.75 E205.64998
G0 F4500 X140.8 Y125.716
G1 F900 X140.8 Y74.25 E208.71404
G0 F4500 X142.4 Y74.25
G1 F900 X142.4 Y125.518 E211.76632
G0 F4500 X144 Y125.143
G1 F900 X144 Y74.25 E214.79627
G0 F4500 X145.6 Y74.25
G1 F900 X145.6 Y124.565 E217.7918
G0 F4500 X147.2 Y124.55
G1 F900 X147.2 Y74.25 E220.78644
G0 F4500 X148.8 Y74.25
G1 F900 X148.8 Y124.55 E223.78109
G0 F4500 X150.4 Y124.509
G1 F900 X150.4 Y74.287 E226.77109
G0 F4500 X152 Y74.496
G1 F900 X152 Y124.306 E229.73656
G0 F4500 X153.6 Y123.92
G1 F900 X153.6 Y74.874 E232.65654
G0 F4500 X155.2 Y75.468
G1 F900 X155.2 Y123.336 E235.50639
G0 F4500 X156.8 Y122.513
G1 F900 X156.8 Y76.283 E238.25873
G0 F4500 X158.4 Y77.371
G1 F900 X158.4 Y121.421 E240.88127
G0 F4500 X160 Y120.046
G1 F900 X160 Y78.833 E243.33491
G0 F4500 X161.6 Y80.813
G1 F900 X161.6 Y118.842 E245.59899
G0 F4500 X163.2 Y117.222
G1 F900 X163.2 Y83.927 E247.58123
G0 F4500 X164.563 Y95.523
G0 X164.8 Y96.805
G1 F900 X164.8 Y114.919 E248.65966
G0 F4500 X166.4 Y110.437
G1 F900 X166.4 Y101.276 E249.20507
G0 F4500 X41.6 Y121.429
G1 F900 X41.6 Y77.379 E251.82761
G0 F4500 X40 Y78.831
G1 F900 X40 Y119.967 E254.27667
G0 F4500 X38.4 Y118.589
G1 F900 X38.4 Y80.805 E256.52617
G0 F4500 X36.8 Y83.942
G1 F900 X36.8 Y116.92 E258.48953
G0 F4500 X35.2 Y114.518
G1 F900 X35.2 Y96.267 E259.57612
G0 F4500 X33.6 Y101.427
G1 F900 X33.6 Y109.372 E260.04913
G0 F4500 X43.552 Y76.079
;TIME_ELAPSED:297.942515
;LAYER:-5
M140 S60
M107
G0 X43.552 Y76.079 Z0.403
;TYPE:SUPPORT
G1 F900 X42.782 Y76.53 E260.11561
G1 X42.668 Y76.609 E260.12594
G1 X91.807 Y125.749 E265.30342
G1 X90.393 Y125.749 E265.40876
G1 X41.835 Y77.19 E270.52502
G1 X41.085 Y77.79 E270.59658
G1 X41.052 Y77.822 E270.6
G1 X88.979 Y125.749 E275.64972
G1 X87.565 Y125.749 E275.75507
G1 X40.319 Y78.502 E280.73309
G1 X40.281 Y78.538 E280.73699
G1 X40.186 Y78.632 E280.74695
G1 X39.626 Y79.224 E280.80766
G1 X86.151 Y125.749 E285.70966
G1 X84.736 Y125.749 E285.81508
G1 X38.983 Y79.995 E290.63579
G1 X38.945 Y80.042 E290.6403
G1 X38.39 Y80.816 E290.71125
G1 X83.322 Y125.749 E295.44547
G1 X81.908 Y125.749 E295.55081
G1 X37.848 Y81.689 E300.19309
G1 X37.769 Y81.819 E300.20443
G1 X37.359 Y82.614 E300.27107
G1 X80.494 Y125.749 E304.81589
G1 X79.079 Y125.749 E304.92131
G1 X36.927 Y83.596 E309.36262
G1 X36.872 Y83.73 E309.37341
G1 X36.56 Y84.644 E309.44536
G1 X77.665 Y125.749 E313.7763
G1 X76.251 Y125.749 E313.88164
G1 X36.258 Y85.755 E318.09547
G1 X36.247 Y85.798 E318.09877
G1 X36.06 Y86.819 E318.17611
G1 X36.044 Y86.956 E318.18638
G1 X74.837 Y125.749 E322.27372
G1 X73.423 Y125.749 E322.37907
G1 X35.925 Y88.251 E326.32996
G1 X35.9 Y88.963 E326.38304
G1 X35.9 Y89.64 E326.43347
G1 X72.008 Y125.749 E330.23796
G1 X70.594 Y125.749 E330.34331
G1 X35.9 Y91.054 E333.99882
G1 X35.9 Y92.469 E334.10424
G1 X69.18 Y125.749 E337.61071
G1 X67.766 Y125.749 E337.71606
G1 X35.9 Y93.883 E341.07355
G1 X35.901 Y95.071 E341.16206
G1 X35.814 Y95.211 E341.17434
G1 X66.352 Y125.749 E344.3919
G1 X64.937 Y125.749 E344.49733
G1 X35.286 Y96.097 E347.62149
G1 X34.876 Y96.896 E347.6884
G1 X34.815 Y97.04 E347.70005
G1 X63.523 Y125.749 E350.72485
G1 X62.259 Y125.749 E350.81902
G1 X62.103 Y125.743 E350.83066
G1 X34.402 Y98.042 E353.74931
G1 X34.109 Y98.907 E353.81735
G1 X34.055 Y99.109 E353.83293
G1 X60.589 Y125.642 E356.62857
G1 X60.109 Y125.589 E356.66455
G1 X59.087 Y125.402 E356.74196
G1 X58.88 Y125.348 E356.75789
G1 X33.781 Y100.249 E359.40239
G1 X33.652 Y100.949 E359.45542
G1 X33.593 Y101.476 E359.49493
G1 X56.803 Y124.685 E361.94035
G1 X56.481 Y124.549 E361.96639
G1 X55.252 Y124.549 E362.05795
G1 X33.504 Y102.8 E364.34943
G1 X33.494 Y103.093 E364.37128
G1 X33.493 Y104.204 E364.45405
G1 X53.838 Y124.549 E366.59765
G1 X52.424 Y124.549 E366.703
G1 X33.492 Y105.617 E368.69773
G1 X33.492 Y107.031 E368.80307
G1 X51.009 Y124.549 E370.64877
G1 X50.621 Y124.549 E370.67767
G1 X49.558 Y124.51 E370.75692
G0 F4500 X49.556 Y124.51
G1 F900 X33.518 Y108.471 E372.44678
G1 X33.523 Y108.621 E372.45796
G1 X33.632 Y109.688 E372.53787
G1 X33.697 Y110.065 E372.56637
G1 X47.921 Y124.288 E374.065
G1 X47.448 Y124.202 E374.10082
G1 X46.425 Y123.933 E374.17963
G1 X46.011 Y123.793 E374.21219
G1 X34.12 Y111.902 E375.46505
G1 X34.414 Y112.79 E375.53474
G1 X34.82 Y113.765 E375.61343
G1 X35.074 Y114.27 E375.65555
G1 X43.503 Y122.699 E376.54365
G0 F4500 X49.556 Y124.51
G1 F900 X49.558 Y124.51 E376.5438
G0 F4500 X93.222 Y125.749
G1 F900 X94.636 Y125.749 E376.64914
G1 X44.49 Y75.603 E381.93266
G1 X44.66 Y75.519 E381.94679
G1 X45.488 Y75.186 E382.01328
G1 X96.05 Y125.749 E387.34068
G1 X97.464 Y125.749 E387.44603
G1 X46.548 Y74.833 E392.81068
G1 X46.658 Y74.797 E392.8193
G1 X47.678 Y74.548 E392.89753
G1 X98.878 Y125.749 E398.29215
G1 X100.293 Y125.749 E398.39757
G1 X48.899 Y74.355 E403.81259
G1 X49.803 Y74.272 E403.88022
G1 X50.219 Y74.261 E403.91122
G1 X101.707 Y125.749 E409.33614
G1 X103.121 Y125.749 E409.44149
G1 X51.621 Y74.249 E414.86767
G1 X53.035 Y74.249 E414.97301
G1 X104.535 Y125.749 E420.39919
G1 X105.95 Y125.749 E420.50462
G1 X54.45 Y74.249 E425.9308
G1 X55.864 Y74.249 E426.03614
G1 X107.364 Y125.749 E431.46232
G1 X108.778 Y125.749 E431.56767
G1 X57.293 Y74.263 E436.99232
G1 X57.955 Y74.287 E437.04168
G1 X58.827 Y74.384 E437.10704
G1 X110.192 Y125.749 E442.519
G1 X111.606 Y125.749 E442.62435
G1 X60.591 Y74.734 E447.99943
G1 X61.089 Y74.864 E448.03777
G1 X62.392 Y75.306 E448.14028
G1 X62.523 Y75.251 E448.15087
G1 X113.021 Y125.749 E453.47148
G1 X114.435 Y125.749 E453.57682
G1 X63.568 Y74.882 E458.93631
G1 X63.832 Y74.797 E458.95697
G1 X64.689 Y74.589 E459.02267
G1 X115.849 Y125.749 E464.41303
G1 X117.263 Y125.749 E464.51838
G1 X65.89 Y74.375 E469.93123
G1 X65.939 Y74.367 E469.93493
G1 X66.979 Y74.272 E470.01274
G1 X67.195 Y74.266 E470.02883
G1 X118.677 Y125.749 E475.45317
G1 X120.092 Y125.749 E475.55859
G1 X68.592 Y74.249 E480.98477
G1 X70.007 Y74.249 E481.09019
G1 X121.506 Y125.749 E486.51632
G1 X122.92 Y125.749 E486.62167
G1 X71.421 Y74.249 E492.0478
G1 X72.835 Y74.249 E492.15314
G1 X124.334 Y125.749 E497.57927
G1 X125.749 Y125.749 E497.68469
G1 X74.249 Y74.249 E503.11087
G1 X75.663 Y74.249 E503.21622
G1 X127.163 Y125.749 E508.6424
G1 X128.577 Y125.749 E508.74775
G1 X77.078 Y74.249 E514.17388
G1 X78.492 Y74.249 E514.27922
G1 X129.991 Y125.749 E519.70535
G1 X131.405 Y125.749 E519.8107
G1 X79.906 Y74.249 E525.23683
G1 X81.32 Y74.249 E525.34217
G1 X132.82 Y125.749 E530.76835
G1 X134.234 Y125.749 E530.8737
G1 X82.735 Y74.249 E536.29983
G1 X84.149 Y74.249 E536.40518
G1 X135.648 Y125.749 E541.8313
G1 X137.062 Y125.749 E541.93665
G1 X85.563 Y74.249 E547.36278
G1 X86.977 Y74.249 E547.46812
G1 X138.476 Y125.749 E552.89425
G1 X139.829 Y125.749 E552.99506
G1 X139.889 Y125.747 E552.99953
G1 X88.391 Y74.249 E558.4255
G1 X89.806 Y74.249 E558.53092
G1 X141.231 Y125.674 E563.9492
G1 X141.707 Y125.631 E563.98481
G1 X142.474 Y125.504 E564.04273
G1 X91.22 Y74.249 E569.44304
G1 X92.634 Y74.249 E569.54839
G1 X143.631 Y125.246 E574.92157
G1 X143.814 Y125.201 E574.93561
G1 X144.711 Y124.912 E575.00582
G1 X94.048 Y74.249 E580.34382
G1 X95.462 Y74.249 E580.44916
G1 X145.762 Y124.549 E585.74891
G1 X147.177 Y124.549 E585.85433
G1 X96.877 Y74.249 E591.15407
G1 X98.291 Y74.249 E591.25942
G1 X148.591 Y124.549 E596.55917
G1 X149.356 Y124.549 E596.61616
G1 X149.987 Y124.532 E596.66319
G1 X99.705 Y74.249 E601.96109
G1 X101.119 Y74.249 E602.06644
G1 X151.292 Y124.422 E607.3528
G1 X152.298 Y124.255 E607.42878
G1 X152.492 Y124.208 E607.44365
G1 X102.534 Y74.249 E612.70741
G1 X103.948 Y74.249 E612.81276
G1 X153.612 Y123.914 E618.04555
G1 X154.352 Y123.676 E618.10346
G1 X154.663 Y123.55 E618.12846
G1 X105.362 Y74.249 E623.32295
G1 X106.776 Y74.249 E623.4283
G1 X155.651 Y123.124 E628.5779
G1 X156.289 Y122.811 E628.63084
G1 X156.581 Y122.639 E628.65609
G1 X108.19 Y74.249 E633.75465
